assets/header-bg.svg

<svg width="1376" height="115" viewBox="0 0 1376 115" fill="none" xmlns="http://www.w3.org/2000/svg">
<path d="M0 20C0 8.9543 8.95431 0 20 0H1356C1367.05 0 1376 8.9543 1376 20V94.5C1376 105.546 1367.05 114.5 1356 114.5H1173.78C1157.35 114.5 1142.93 103.567 1138.5 87.75C1134.07 71.9328 1119.65 61 1103.22 61H689H278.185C262.6 61 248.511 70.2787 242.356 84.5967L239.644 90.9033C233.489 105.221 219.4 114.5 203.815 114.5H20C8.95431 114.5 0 105.546 0 94.5V20Z" fill="#1C1C1C"/>
</svg>

<svg xmlns="http://www.w3.org/2000/svg" width="1376" height="115" fill="none"><path fill="#1C1C1C" d="M0 20C0 8.954 8.954 0 20 0h1336c11.05 0 20 8.954 20 20v74.5c0 11.046-8.95 20-20 20h-182.22c-16.43 0-30.85-10.933-35.28-26.75S1119.65 61 1103.22 61H278.185a39 39 0 0 0-35.829 23.597l-2.712 6.306a39 39 0 0 1-35.829 23.597H20c-11.046 0-20-8.954-20-20z"/></svg>
